src/3-context/sign--keep-walking.svg

<svg width="1300" height="1000" fill="none" xmlns="http://www.w3.org/2000/svg"><path d="M144.217 99.52a3.35 3.35 0 0 1 4.85.05l16.042 17.183a2.999 2.999 0 0 1 .023 4.07l-16.059 17.581a3.353 3.353 0 0 1-4.988-4.483l13.364-15.106-13.315-14.712a3.35 3.35 0 0 1 .083-4.584Z" fill="#000"/><path fill-rule="evenodd" clip-rule="evenodd" d="M137 0h-7v69h-15c-8.284 0-15 6.716-15 15v70c0 8.284 6.716 15 15 15h270c8.284 0 15-6.716 15-15V84c0-8.284-6.716-15-15-15h-15V0h-7v69H137V0Zm246 76c5.523 0 10 4.477 10 10v66c0 5.523-4.477 10-10 10H207V76h176Zm-266 0c-5.523 0-10 4.477-10 10v66c0 5.523 4.477 10 10 10h83V76h-83Z" fill="#000"/></svg>

<svg width="1300" height="1000" viewBox="0 0 1300 1000" fill="none" xmlns="http://www.w3.org/2000/svg">
<path d="M144.217 99.5192C145.551 98.1479 147.761 98.1707 149.067 99.5692L165.109 116.753C166.177 117.896 166.187 119.668 165.132 120.823L149.073 138.404C147.781 139.817 145.571 139.865 144.221 138.508C142.972 137.254 142.913 135.246 144.085 133.921L157.449 118.815L144.134 104.103C142.948 102.793 142.984 100.786 144.217 99.5192Z" fill="black"/>
<path fill-rule="evenodd" clip-rule="evenodd" d="M137 0H130V69H115C106.716 69 100 75.7157 100 84V154C100 162.284 106.716 169 115 169H385C393.284 169 400 162.284 400 154V84C400 75.7157 393.284 69 385 69H370V0H363V69H137V0ZM383 76C388.523 76 393 80.4771 393 86V152C393 157.523 388.523 162 383 162H207V76H383ZM117 76C111.477 76 107 80.4771 107 86V152C107 157.523 111.477 162 117 162H200V76H117Z" fill="black"/>
</svg>
